X:1
T:I Was Wandering and Weary
T:I Was Wandering and Weary
T:Composer Unknown
T:Frederick William Faber, 1849
T:Public Domain Courtesy of the Cyber Hymnal™
T:Public Domain Courtesy of the Cyber Hymnal™
C:Composer Unknown
Z:Public Domain
Z:Courtesy of the Cyber Hymnal™
%%score ( 1 2 ) ( 3 4 )
L:1/8
Q:1/4=110
M:none
K:A
V:1 treble 
V:2 treble 
V:3 bass 
V:4 bass 
V:1
 ([CE]3 [B,D]) | [A,C]2 [CE]2 [EA]2 [EA]2 | [EA]2 [EG]2 ([EB]3 [EB]) | [EF]2 [EB]2 [Dd]3 [Ed] | %4
w: 1.~I~was *|wand- er- ing and|wea- ry When~my *|Sav- ior came un-|
w: 2.~At *|first I would not|heark- en And *|put off till to-|
w: 3.~At *|last I stopped to|list- en, His *|voice could not de-|
w: 4.~I *|thought his love would|weak- en As *|more and more He|
 [Ed]2 [Ec]2 ([EA]3 [EB]) | [Ec]3 [Ec] [Fc]2 [=Ge]2 | [=Ge]2 [Fd]2 ([Fc]3 [FB]) | %7
w: to me; For~the *|ways of sin grew|drea- ry And~the *|
w: mor- row; But *|life be- gan to|dark- en And *|
w: ceive me; I *|saw His kind eyes|glist- en, So *|
w: knew me; But~it *|burn- eth like a|bea- con, And~its *|
 [EA]2 [Ec]2 [DB]2 [CA]2 | [DG]2 [CA]2 [EA]3 [EA] | [FA]2 [EA]2 [EB]2 [EB]2 | [Ec]4 [Ec]3 [EB] | %11
w: world has ceased to|woo me: And I|thought I heard Him|say As He|
w: I was sick with|sor- row; And I|thought I heard Him|say As He|
w: anx- ious to re-|lieve me; And I|thought I heard Him|say As He|
w: light and heat go|through me; As I|ev- er hear Him|say As He|
 [EA]3 [EG] [EG]2 [^DF]2 | E4 ([B,E]3 [B,D]) | C2 [B,G]2 [CA]3 [CG] | [EG]2 [DF]2 [EF]4 | %15
w: came a- long His|way— “O *|fool- ish souls, come|near Me, My|
w: came a- long His|way— “O *|fool- ish souls, come|near Me, My|
w: came a- long His|way— “O *|fool- ish souls, come|near Me, My|
w: goes a- long His|way— “O *|fool- ish souls, come|near Me, My|
 [Dd]3 [Ec] [FB]2 [FA]2 | [EA]2 [EG]2 z2 [B,F]2 | E4 [FA]4 | [FB]4 [EG]4 | [EA]4 |] %20
w: sheep should ne- ver|fear Me; I|am the|Shep- herd|true.”|
w: sheep should ne- ver|fear Me; I|am the|Shep- herd|true.”|
w: sheep should ne- ver|fear Me; I|am the|Shep- herd|true.”|
w: sheep should ne- ver|fear Me; I|am the|Shep- herd|true.”|
V:2
 x4 | x8 | x8 | x8 | x8 | x8 | x8 | x8 | x8 | x8 | x8 | x8 | E4 x4 | C2 x6 | x8 | x8 | x8 | E4 x4 | %18
 x8 | x4 |] %20
V:3
 ([A,,A,]3 [A,,E,]) | [A,,E,]2 [A,,A,]2 [A,C]2 [A,C]2 | [E,C]2 [E,B,]2 ([G,B,]3 [G,B,]) | %3
 [A,C]2 [G,B,]2 [F,A,]3 [G,B,] | A,2 A,2 ([A,C]3 [A,D]) | [A,C]3 [=G,B,] [F,A,]2 [C,A,]2 | %6
 [D,A,]2 [D,B,]2 ([D,E]3 [D,D]) | [E,C]2 [E,A,]2 [E,G,]2 [E,A,]2 | [E,B,]2 [A,,A,]2 [A,C]3 [A,C] | %9
 [F,C]2 [C,A,]2 [E,G,]2 [E,G,]2 | [A,,A,]4 [A,E]3 [A,D] | [A,C]3 [A,C] B,2 [B,,A,]2 | %12
 [E,G,]4 ([E,G,]3 [G,B,]) | A,2 [G,B,]2 [F,A,]3 [E,A,] | [D,A,]2 [D,A,]2 [F,^A,]4 | %15
 [B,,B,]3 [C,^A,] [D,B,]2 [D,D]2 | [E,C]2 [E,B,]2 z2 [D,G,]2 | [C,A,]4 [F,C]4 | [D,D]4 [E,B,]4 | %19
 [A,,C]4 |] %20
V:4
 x4 | x8 | x8 | x8 | A,2 A,2 x4 | x8 | x8 | x8 | x8 | x8 | x8 | x4 B,2 x2 | x8 | A,2 x6 | x8 | x8 | %16
 x8 | x8 | x8 | x4 |] %20

